X: 206
T: the Tailor and the Mouse
O: English
%R: march
B: "The Everyday Song Book", 1927
F: http://www.library.pitt.edu/happybirthday/pdf/The_Everyday_Song_Book.pdf
Z: 2016 John Chambers <jc:trillian.mit.edu>
M: 4/4
L: 1/8
K: Fm
% - - - - - - - - - - - - - - - - - - - - - - - - - - - - -
c2 | A2 F2 F2 F2 | E2 C2 E4 | C2 C C C2 c2 | A4 F2 c2 |
w: 1.~There was a tail-lor had a mouse Hi did-dle um kum fee-dle, They
w: 2.~The tail-lor tho't the mouse was ill, Hi did-dle um kum fee-dle, He
w: 3.~The tail-lor tho't the mouse would die, Hi did-dle um kum fee-dle, He
w: 4.~The pie was out, the mouse ran out, Hi did-dle um kum fee-dle, The
%
A2 F2 F2 F2 | E2 C2 E4 | C2 C C C2 c2 | A4 F2 z2 |
w: liv'd to-geth-er in one house, Hi did-dle um kum fee-dle,
w: gave him part of a blue pill, Hi did-dle um kum fee-dle,
w: baked him in an ap-ple pie, Hi did-dle um kum fee-dle,
w: tai-lor fol-lowed him a-bout, Hi did-dle um kum fee-dle,
%
A2 F F c2 F2 | A2 F2 c2 F2 | G2 B2 B2 B2 | G4 B2 z2 |
w: Hi did-dle um kum tar-um tan-tum Through the town of Ram-say.
% 
A2 F F F2 F2 | E2 C C E4 | C2 C C C2 c2 | A4 F2 |]
w: Hi did-dle um kum o-ver the lea, Hi did-dle um kum fee-dle,
% - - - - - - - - - - - - - - - - - - - - - - - - - - - - -
